X: 11462
T: Ebb Tide, The
R: reel
M: 4/4
K: Edorian
|:B~E3 EFFE|D2FE D~A3|BEED EFGA|B/c/d eB dBA=c|
B~E3 EFFE|D~F3 A2FF|BFAF EFGA|BdAF G~E3:|
fgeg bgeg|~f3g afdf|fgeg bgeg|fedf ~e3d|
~g3a bgeg|~f3g afd2|eBBA ~B3c|dcdf ~e4|
gbeg ~b3e|~f3g afd2|~g3a bgeg|fedf ~e3f|
gbeg begb|~f3g afd2|e2BA ~B3c|dcdf e2dc|

